elementary-xfce-dark/panel/16/indicator-messages-new.svg

<?xml version="1.0" encoding="UTF-8" standalone="no"?>
<svg
   xmlns:dc="http://purl.org/dc/elements/1.1/"
   xmlns:cc="http://creativecommons.org/ns#"
   xmlns:rdf="http://www.w3.org/1999/02/22-rdf-syntax-ns#"
   xmlns:svg="http://www.w3.org/2000/svg"
   xmlns="http://www.w3.org/2000/svg"
   xmlns:sodipodi="http://sodipodi.sourceforge.net/DTD/sodipodi-0.dtd"
   xmlns:inkscape="http://www.inkscape.org/namespaces/inkscape"
   height="16"
   width="16"
   version="1.1"
   id="svg6"
   sodipodi:docname="indicator-messages-new.svg"
   inkscape:version="0.92.4 (5da689c313, 2019-01-14)">
  <metadata
     id="metadata12">
    <rdf:RDF>
      <cc:Work
         rdf:about="">
        <dc:format>image/svg+xml</dc:format>
        <dc:type
           rdf:resource="http://purl.org/dc/dcmitype/StillImage" />
        <dc:title />
      </cc:Work>
    </rdf:RDF>
  </metadata>
  <defs
     id="defs10" />
  <sodipodi:namedview
     pagecolor="#ffffff"
     bordercolor="#666666"
     borderopacity="1"
     objecttolerance="10"
     gridtolerance="10"
     guidetolerance="10"
     inkscape:pageopacity="0"
     inkscape:pageshadow="2"
     inkscape:window-width="1920"
     inkscape:window-height="1021"
     id="namedview8"
     showgrid="true"
     inkscape:zoom="22.36"
     inkscape:cx="2.688295"
     inkscape:cy="6.9152542"
     inkscape:window-x="0"
     inkscape:window-y="0"
     inkscape:window-maximized="1"
     inkscape:current-layer="g4">
    <inkscape:grid
       type="xygrid"
       id="grid822" />
  </sodipodi:namedview>
  <g
     color="#000"
     transform="translate(-912.002 -523.948)"
     id="g4">
    <path
       style="isolation:auto;mix-blend-mode:normal;fill:#fcfcfc;fill-opacity:1;marker:none"
       d="m 2.4980469,3.0527344 c -0.831,0 -1.50000002,0.669 -1.50000002,1.5 v 6.9999996 c 0,0.831 0.66900002,1.5 1.50000002,1.5 H 13.498047 c 0.831,0 1.5,-0.669 1.5,-1.5 V 6.2324219 c -0.291413,0.2612509 -0.631128,0.462957 -1,0.59375 v 4.7265621 c 0,0.277 -0.223,0.5 -0.5,0.5 H 7.6028623 2.4980469 c -0.2763717,5.54e-4 -0.5005544,-0.223628 -0.5,-0.5 V 4.5664062 l 5.6914062,4.3808594 c 0.016,0.013 0.034781,0.017344 0.050781,0.027344 0.018,0.01 0.035687,0.019344 0.054687,0.027344 0.038,0.017 0.075234,0.028156 0.1152343,0.035156 0.03,0.006 0.057891,0.00781 0.087891,0.00781 0.03,0 0.058891,-0.00181 0.087891,-0.00781 0.039711,-0.00693 0.078415,-0.018742 0.1152344,-0.035156 0.019,-0.009 0.036687,-0.016344 0.054687,-0.027344 0.016,-0.01 0.035781,-0.014344 0.050781,-0.027344 L 11.421875,6.546875 C 11.130774,6.367432 10.872496,6.1395394 10.658203,5.8730469 L 7.9980469,7.9238281 2.9726562,4.0527344 h 6.21875 c -0.1196466,-0.3201097 -0.1837195,-0.6583091 -0.1894531,-1 z"
       transform="translate(912.002,523.948)"
       id="path2"
       inkscape:connector-curvature="0"
       sodipodi:nodetypes="ssssssccssccccccccsccccccccccs" />
    <circle
       style="opacity:1;fill:#f9c440;fill-opacity:1;stroke:none;stroke-width:7.72992277;stroke-linecap:round;stroke-miterlimit:4;stroke-dasharray:none;stroke-dashoffset:0;stroke-opacity:0"
       id="path879-5"
       cx="925.00201"
       cy="526.948"
       r="3" />
  </g>
</svg>

<?xml version="1.0" encoding="UTF-8" standalone="no"?>
<svg
   xmlns:dc="http://purl.org/dc/elements/1.1/"
   xmlns:cc="http://creativecommons.org/ns#"
   xmlns:rdf="http://www.w3.org/1999/02/22-rdf-syntax-ns#"
   xmlns:svg="http://www.w3.org/2000/svg"
   xmlns="http://www.w3.org/2000/svg"
   xmlns:sodipodi="http://sodipodi.sourceforge.net/DTD/sodipodi-0.dtd"
   xmlns:inkscape="http://www.inkscape.org/namespaces/inkscape"
   height="16"
   width="16"
   version="1.1"
   id="svg6"
   sodipodi:docname="indicator-messages-new.svg"
   inkscape:version="0.92.4 (5da689c313, 2019-01-14)">
  <metadata
     id="metadata12">
    <rdf:RDF>
      <cc:Work
         rdf:about="">
        <dc:format>image/svg+xml</dc:format>
        <dc:type
           rdf:resource="http://purl.org/dc/dcmitype/StillImage" />
        <dc:title></dc:title>
      </cc:Work>
    </rdf:RDF>
  </metadata>
  <defs
     id="defs10" />
  <sodipodi:namedview
     pagecolor="#ffffff"
     bordercolor="#666666"
     borderopacity="1"
     objecttolerance="10"
     gridtolerance="10"
     guidetolerance="10"
     inkscape:pageopacity="0"
     inkscape:pageshadow="2"
     inkscape:window-width="1920"
     inkscape:window-height="1021"
     id="namedview8"
     showgrid="false"
     inkscape:zoom="14.75"
     inkscape:cx="-12.949153"
     inkscape:cy="6.9152542"
     inkscape:window-x="0"
     inkscape:window-y="0"
     inkscape:window-maximized="1"
     inkscape:current-layer="g4" />
  <g
     color="#000"
     transform="translate(-912.002 -523.948)"
     id="g4">
    <path
       style="isolation:auto;mix-blend-mode:normal;marker:none;fill:#fcfcfc;fill-opacity:1"
       d="M 2.4980469 3.0527344 C 1.6670469 3.0527344 0.99804688 3.7217344 0.99804688 4.5527344 L 0.99804688 11.552734 C 0.99804688 12.383734 1.6670469 13.052734 2.4980469 13.052734 L 13.498047 13.052734 C 14.329047 13.052734 14.998047 12.383734 14.998047 11.552734 L 14.998047 7.2597656 A 4.5169492 4.5169492 0 0 1 13.998047 7.7558594 L 13.998047 11.552734 C 13.998047 11.829734 13.775047 12.052734 13.498047 12.052734 L 2.4980469 12.052734 A 0.499 0.499 0 0 1 1.9980469 11.552734 L 1.9980469 4.5664062 L 7.6894531 8.9472656 C 7.7054531 8.9602656 7.7242344 8.9646094 7.7402344 8.9746094 C 7.7582344 8.9846094 7.7759219 8.9939531 7.7949219 9.0019531 C 7.8329219 9.0189531 7.8701563 9.0301094 7.9101562 9.0371094 C 7.9401562 9.0431094 7.9680469 9.0449219 7.9980469 9.0449219 C 8.0280469 9.0449219 8.0569375 9.0431094 8.0859375 9.0371094 A 0.49 0.49 0 0 0 8.2011719 9.0019531 C 8.2201719 8.9929531 8.2378594 8.9856094 8.2558594 8.9746094 C 8.2718594 8.9646094 8.2916406 8.9602656 8.3066406 8.9472656 L 10.277344 7.4296875 A 4.5169492 4.5169492 0 0 1 9.4394531 6.8144531 L 7.9980469 7.9238281 L 2.9726562 4.0527344 L 8.0234375 4.0527344 A 4.5169492 4.5169492 0 0 1 7.9824219 3.5 A 4.5169492 4.5169492 0 0 1 8.0058594 3.0527344 L 2.4980469 3.0527344 z "
       transform="translate(912.002,523.948)"
       id="path2" />
    <circle
       class="warning"
       style="opacity:1;fill:#f9c440;fill-opacity:1;stroke:none;stroke-width:9.01824379;stroke-linecap:round;stroke-miterlimit:4;stroke-dasharray:none;stroke-dashoffset:0;stroke-opacity:0"
       id="path879-5"
       cx="924.50201"
       cy="527.448"
       r="3.5" />
  </g>
</svg>
